src/16/actions/document-edit-decrypt.svg

<svg xmlns="http://www.w3.org/2000/svg" viewBox="0 0 16 16"><path d="M3 2v2h2V2H3zm4 0v2h2V2H7zm4 0v2h2V2h-2zM5 5v2h2V5H5zm4 0v2h2V5H9zM3 7v7h7l3-3V7h-1v3H9v3H4V7H3z" fill="currentColor" color="#5d656b"/></svg>

<svg xmlns="http://www.w3.org/2000/svg" viewBox="0 0 16 16">
  <defs id="defs3051">
    <style type="text/css" id="current-color-scheme">
      .ColorScheme-Text {
        color:#5d656b;
      }
      </style>
  </defs>
 <path style="fill:currentColor;fill-opacity:1;stroke:none" 
     d="M 3 2 L 3 4 L 5 4 L 5 2 L 3 2 z M 7 2 L 7 4 L 9 4 L 9 2 L 7 2 z M 11 2 L 11 4 L 13 4 L 13 2 L 11 2 z M 5 5 L 5 7 L 7 7 L 7 5 L 5 5 z M 9 5 L 9 7 L 11 7 L 11 5 L 9 5 z M 3 7 L 3 14 L 9 14 L 10 14 L 13 11 L 13 10 L 13 7 L 12 7 L 12 10 L 9 10 L 9 13 L 4 13 L 4 7 L 3 7 z "
     class="ColorScheme-Text"
     />
</svg>
